X:1
T:Title
%%score ( 1 2 ) ( 3 4 )
L:1/8
M:4/4
K:D
V:1 treble nm="Choir Aahs, Staff"
V:2 treble 
V:3 bass nm="Choir Aahs, Staff-1"
V:4 bass 
V:1
 [FA]2 [FA]2 [GB]2 [GB]2 | [FA]8 | [CF]2 [CF]2 [B,D]2 [CE]2 | [DF]8 | [CE]3 [CF] [DG]2 [A,E]2 | %5
w: By~Leicester~Darwall * * *|||||
 [DF]2 [CG]2 [DA]2 [DA]2 | [FA]3 [FA] [GB]2 A2 | [GB]2 [Gc]2 [Fd]2 [Fd]2 | [GB]3 [GB] [DA]2 [DF]2 | %9
w: ||||
 G8 | [DF]2 [DF]2 [DE]2 [CE]2 | D8 |] %12
w: |||
V:2
 x8 | x8 | x8 | x8 | x8 | x8 | x8 | x8 | x8 | D4 C4 | x8 | x8 |] %12
V:3
 [D,D]2 [D,D]2 [G,D]2 [G,D]2 | [D,D]8 | [F,A,]2 [F,,A,]2 [B,,F,]2 [A,,A,]2 | [D,A,]8 | %4
 [A,,A,]3 [A,,A,] [B,,G,]2 [C,A,]2 | [D,A,]2 [E,A,]2 [F,A,]2 [F,A,]2 | %6
 [D,=C]3 [D,C] [G,B,]2 [F,D]2 | [G,D]2 [E,E]2 [B,D]2 [B,D]2 | [G,D]3 [G,D] [F,D]2 [F,A,]2 | %9
 [E,B,]4 [A,,A,]4 | [D,A,]2 [F,,A,]2 [G,,B,]2 A,G, | [D,F,]8 |] %12
V:4
 x8 | x8 | x8 | x8 | x8 | x8 | x8 | x8 | x8 | x8 | z4 z2 A,,2 | x8 |] %12

